src/img/icons/favourite.svg

<svg width="32" height="32" viewBox="0 0 32 32" fill="none" xmlns="http://www.w3.org/2000/svg">
<path d="M15.986 28.5284C15.7102 28.5284 15.4336 28.4785 15.1563 28.3788C14.879 28.2791 14.6351 28.1232 14.4246 27.9113L12.6009 26.2449C9.76902 23.6497 7.29421 21.1482 5.17653 18.7402C3.05884 16.3322 2 13.8201 2 11.2041C2 9.15937 2.68944 7.44756 4.06832 6.06869C5.44719 4.68956 7.15409 4 9.189 4C10.351 4 11.5298 4.28565 12.7255 4.85695C13.9209 5.428 15.0124 6.43096 16 7.86584C17.0441 6.43096 18.1458 5.428 19.3051 4.85695C20.4642 4.28565 21.6328 4 22.811 4C24.8459 4 26.5528 4.68956 27.9317 6.06869C29.3106 7.44756 30 9.15937 30 11.2041C30 13.8484 28.9195 16.3837 26.7586 18.8102C24.598 21.2363 22.1406 23.714 19.3865 26.2431L17.5555 27.9172C17.3472 28.1269 17.1038 28.2812 16.8253 28.3799C16.5465 28.4789 16.2667 28.5284 15.986 28.5284ZM15.1593 9.85495C14.3821 8.54067 13.4864 7.54483 12.472 6.86742C11.4579 6.19026 10.3635 5.85168 9.189 5.85168C7.64212 5.85168 6.36591 6.35703 5.36037 7.36774C4.35458 8.37844 3.85168 9.65981 3.85168 11.2118C3.85168 12.4625 4.24344 13.7641 5.02695 15.1167C5.8107 16.4696 6.79512 17.8124 7.98021 19.1451C9.16505 20.4775 10.45 21.7745 11.835 23.0359C13.2198 24.2974 14.5089 25.4707 15.7023 26.5558C15.7873 26.6376 15.8865 26.6785 16 26.6785C16.1135 26.6785 16.2127 26.6376 16.2977 26.5558C17.4911 25.4808 18.7802 24.3101 20.165 23.0437C21.55 21.7771 22.834 20.4737 24.0168 19.1336C25.2 17.7933 26.1844 16.4467 26.9701 15.0939C27.7556 13.7411 28.1483 12.4454 28.1483 11.2071C28.1483 9.65821 27.6427 8.37844 26.6315 7.36774C25.6203 6.35703 24.346 5.85168 22.8084 5.85168C21.6192 5.85168 20.5215 6.18781 19.5155 6.86005C18.5094 7.5323 17.6078 8.5306 16.8105 9.85495C16.7059 10.0175 16.5825 10.1385 16.4403 10.2178C16.2978 10.2972 16.1444 10.3368 15.9801 10.3368C15.8158 10.3368 15.6599 10.2972 15.5126 10.2178C15.3652 10.1385 15.2474 10.0175 15.1593 9.85495Z" fill="#131212"/>
</svg>

<svg xmlns="http://www.w3.org/2000/svg" viewBox="0 0 32 32">
  <path fill="currentColor" d="M15.986 28.528c-.276 0-.552-.05-.83-.15a1.95 1.95 0 0 1-.731-.467L12.6 26.245c-2.832-2.595-5.307-5.097-7.424-7.505C3.059 16.332 2 13.82 2 11.204c0-2.045.69-3.756 2.068-5.135C5.448 4.689 7.154 4 9.19 4c1.162 0 2.34.286 3.537.857 1.195.571 2.286 1.574 3.274 3.009 1.044-1.435 2.146-2.438 3.305-3.009C20.465 4.286 21.633 4 22.811 4c2.035 0 3.742.69 5.12 2.069C29.312 7.448 30 9.159 30 11.204c0 2.644-1.08 5.18-3.241 7.606s-4.618 4.904-7.372 7.433l-1.832 1.674c-.208.21-.451.364-.73.463a2.494 2.494 0 0 1-.839.148Zm-.827-18.673c-.777-1.314-1.673-2.31-2.687-2.988-1.014-.677-2.108-1.015-3.283-1.015-1.547 0-2.823.505-3.829 1.516-1.005 1.01-1.508 2.292-1.508 3.844 0 1.25.391 2.552 1.175 3.905.784 1.353 1.768 2.695 2.953 4.028a52.064 52.064 0 0 0 3.855 3.89c1.385 1.262 2.674 2.436 3.867 3.52a.416.416 0 0 0 .298.123c.113 0 .213-.04.298-.122a697.97 697.97 0 0 0 3.867-3.512 51.36 51.36 0 0 0 3.852-3.91c1.183-1.34 2.167-2.687 2.953-4.04.786-1.353 1.178-2.649 1.178-3.887 0-1.549-.505-2.829-1.517-3.84-1.01-1.01-2.285-1.515-3.823-1.515a5.81 5.81 0 0 0-3.293 1.008c-1.006.672-1.907 1.67-2.704 2.995a1.058 1.058 0 0 1-.37.363.971.971 0 0 1-.928 0 .868.868 0 0 1-.354-.363Z"/>
</svg>
